X:226
T:Hare's Paw, The
R:reel
D:Live at Mona's
Z:transcribed by Dave Marshall
M:C|
K:Gmaj
|: G3B A2GA | B~E3 GEDE | GFGA BABd |1 egfg edBA :|2 egfg ~e3f|
| g2fg edBc | d2ed Bdef | g2fg edBd | egfg e3f |
g2fg edBc | d2ed BABd | e3f edBd | egfa gedB ||
